X: 16049
T: Green Cottage, The
R: polka
M: 2/4
K: Eminor
B>A|:"Em"GE EE/D/|B,E EG|"D"FD DE|FG A/B/B/A/|
"Em"GE EE/D/|B,E E>F|GB "D"AF|"Em"E2 B>A:|
"Em"Be "Am"e>d|"Em"eB B>A|Be "Am"ed|"Em"e2 "Am"e>f|
"Em"ge "D"fg/f/|"Em"ed B>A|"C"GE EF|"G"GA "B"BB/A/|
"Em"Be "Am"ed|"Em"e/f/e/d/ BA|Be "Am"^df|"Em"e2 "Am"e>f|
"Em"ge "D"fg/f/|"Em"ed B>A|"C"GE EF|"G"GA "B"BB/A/||

